X: 05032
T: GORDON'S HORNPIPE
C: Bob McQuillen 26 Mar 81
B: Bob's Note Book 5 #32
%R: hornpipe, reel
Z: 2021 John Chambers <jc:trillian.mit.edu>
M: C
L: 1/8
K: G
GE \
| DEGB dBde | g2ge d2ba | gagb aged | Bdeg dBAB |\
| GBde dBga | bged eage | dedB ABGE | D2G2 G2 :|
|: ga \
| bagd edba | gagd e2de | gage dBGA | Bdeg e2ge |\
| d2dB dBAB | G2GE DEGA | Bdeg aged | B2G2 G2 :|
%%begintext align
%% This
%% tune is for Gordon Peery of New
%% Ipswich, N.H., who is one of the
%% spark plugs of dance music in the Monadnock Region --
%%endtext

%%sep 1 1 500

%%sep 1 1 500

